symbols/web/remove_from_queue/materialsymbolsrounded/remove_from_queue_wght500grad200fill1_24px.svg

<svg xmlns="http://www.w3.org/2000/svg" height="24" width="24"><path d="M8.925 12.425h6.15q.575 0 .987-.413.413-.412.413-.987 0-.6-.413-1.013-.412-.412-.987-.412h-6.15q-.575 0-.987.412-.413.413-.413 1.013 0 .575.413.987.412.413.987.413ZM8.7 22q-.6 0-1-.4t-.4-1v-.725H3.95q-1.2 0-2.012-.825-.813-.825-.813-2.025V4.975q0-1.2.813-2.025.812-.825 2.012-.825h16.1q1.2 0 2.012.825.813.825.813 2.025v12.05q0 1.2-.813 2.025-.812.825-2.012.825H16.7v.725q0 .6-.4 1t-1 .4Z"/></svg>

<svg xmlns="http://www.w3.org/2000/svg" height="24" width="24"><path d="M8.925 12.425H15.075Q15.65 12.425 16.062 12.012Q16.475 11.6 16.475 11.025Q16.475 10.425 16.062 10.012Q15.65 9.6 15.075 9.6H8.925Q8.35 9.6 7.938 10.012Q7.525 10.425 7.525 11.025Q7.525 11.6 7.938 12.012Q8.35 12.425 8.925 12.425ZM8.7 22Q8.1 22 7.7 21.6Q7.3 21.2 7.3 20.6V19.875H3.95Q2.75 19.875 1.938 19.05Q1.125 18.225 1.125 17.025V4.975Q1.125 3.775 1.938 2.95Q2.75 2.125 3.95 2.125H20.05Q21.25 2.125 22.062 2.95Q22.875 3.775 22.875 4.975V17.025Q22.875 18.225 22.062 19.05Q21.25 19.875 20.05 19.875H16.7V20.6Q16.7 21.2 16.3 21.6Q15.9 22 15.3 22Z"/></svg>
